X: 91
T: Ave verum corpus
C: Gaspar van Weerbeke
%%abc-version 2.0
%%abcx-abcm2ps-target-version 5.9.1 (29 Sep 2008)
%%abc-creator hum2abc beta
%%abcx-conversion-date 2022/03/06 13:06:00
%%abc-copyright Copyright 2008, Pavanello, Agnese
%%abc-edited-by Mair-Gruber, Roland
%%humdrum-veritas 249830541
%%humdrum-veritas-data 2243075936
%%linebreak <none>
%%barnumbers 0
L: 1/4
M: 2/2
N: Derived from Gas0415-Ave_verum_corpus.krn
%%staves [1 2 3 4]
V: 1 clef=treble
V: 2 clef=treble-8
V: 3 clef=treble-8
V: 4 clef=bass
K: F
[V:1] G4 | 
[V:2] d4 | 
[V:3] G4 | 
[V:4] G,,4 | 
[V:1] G2G2- | 
[V:2] d2d2- | 
[V:3] G2B2- | 
[V:4] G,,2G,2- | 
[V:1] G2G2 | 
[V:2] d2G2 | 
[V:3] B2c2 | 
[V:4] G,2E,2 | 
[V:1] F2F2 | 
[V:2] A2A2 | 
[V:3] d2d2 | 
[V:4] D,2D,2 | 
[V:1] E2G2- | 
[V:2] c4 | 
[V:3] G4- | 
[V:4] C,3B,,/A,,/ | 
[V:1] GFED | 
[V:2] B4 | 
[V:3] G4 | 
[V:4] G,,4 | 
[V:1] E4 | 
[V:2] G2E2 | 
[V:3] G3A | 
[V:4] C,4 | 
[V:1] !fermata!D4 | 
[V:2] !fermata!F4 | 
[V:3] !fermata!B4 | 
[V:4] !fermata!B,,4 | 
[V:1] z4 | 
[V:2] f2e2 | 
[V:3] F2G2 | 
[V:4] D,2C,2 | 
[V:1] F2G2 | 
[V:2] d4 | 
[V:3] B4 | 
[V:4] B,,4 | 
[V:1] B4 | 
[V:2] d2g2 | 
[V:3] B4 | 
[V:4] G,,2zG, | 
[V:1] A2GA- | 
[V:2] efef- | 
[V:3] c2Bc | 
[V:4] A,F,G,F, | 
[V:1] AG2^F | 
[V:2] fd3 | 
[V:3] dBA2 | 
[V:4] D,G,D,2 | 
[V:1] !fermata!G4 | 
[V:2] !fermata!d4 | 
[V:3] !fermata!G4 | 
[V:4] !fermata!G,,4 | 
[V:1] G2G2 | 
[V:2] B2B2 | 
[V:3] G2G2 | 
[V:4] G,,2G,,2 | 
[V:1] F2F2 | 
[V:2] A2d2 | 
[V:3] A2A2 | 
[V:4] D,2D,2 | 
[V:1] G2G2 | 
[V:2] d2d2 | 
[V:3] B2B2 | 
[V:4] G,,2G,,2 | 
[V:1] A3G/F/ | 
[V:2] d4 | 
[V:3] A3B | 
[V:4] D,4 | 
[V:1] E>FG2- | 
[V:2] G4- | 
[V:3] c2B2- | 
[V:4] C,2_E,2- | 
[V:1] GFF2- | 
[V:2] G2AB | 
[V:3] B2A2 | 
[V:4] E,2F,2 | 
[V:1] F2E2 | 
[V:2] c4 | 
[V:3] G4 | 
[V:4] C,4 | 
[V:1] !fermata!F4 | 
[V:2] !fermata!A4 | 
[V:3] !fermata!F4 | 
[V:4] !fermata!D,4 | 
[V:1] F4 | 
[V:2] A4 | 
[V:3] F4 | 
[V:4] D,4 | 
[V:1] E4 | 
[V:2] c4 | 
[V:3] G3A | 
[V:4] C,4 | 
[V:1] D2C2 | 
[V:2] F2A2- | 
[V:3] B2c2- | 
[V:4] B,,2F,2- | 
[V:1] F3E/D/ | 
[V:2] A2F2 | 
[V:3] cBB2- | 
[V:4] F,2D,2 | 
[V:1] E2E2 | 
[V:2] G2E2 | 
[V:3] B2A2 | 
[V:4] C,4 | 
[V:1] !fermata!D4 | 
[V:2] !fermata!F4 | 
[V:3] !fermata!B4 | 
[V:4] !fermata!B,,4 | 
[V:1] D2D2 | 
[V:2] d2d2 | 
[V:3] B2B2 | 
[V:4] G,,2G,,2 | 
[V:1] F4 | 
[V:2] d4 | 
[V:3] A4 | 
[V:4] D,4 | 
[V:1] G2F3/G/ | 
[V:2] G2A2- | 
[V:3] G2d2 | 
[V:4] _E,2D,2 | 
[V:1] A2B2- | 
[V:2] A2G2 | 
[V:3] c2B2 | 
[V:4] F,2G,2 | 
[V:1] BAA2- | 
[V:2] F2f2 | 
[V:3] c2A2 | 
[V:4] A,2F,2 | 
[V:1] A2G2 | 
[V:2] d4 | 
[V:3] B4 | 
[V:4] G,4 | 
[V:1] A3F | 
[V:2] d3c/B/ | 
[V:3] A4 | 
[V:4] D,4- | 
[V:1] !fermata!F4 | 
[V:2] !fermata!A4 | 
[V:3] !fermata!d4 | 
[V:4] !fermata!D,4 | 
[V:1] B2B2 | 
[V:2] f2f2 | 
[V:3] d2d2 | 
[V:4] D,2D,2 | 
[V:1] A4- | 
[V:2] f4- | 
[V:3] c4- | 
[V:4] F,4- | 
[V:1] A2G2 | 
[V:2] f2d2 | 
[V:3] c2B2 | 
[V:4] F,2G,2 | 
[V:1] F3G/A/ | 
[V:2] d4 | 
[V:3] A4 | 
[V:4] D,4 | 
[V:1] B2A2- | 
[V:2] z2d2 | 
[V:3] G2F2 | 
[V:4] G,,2D,2 | 
[V:1] AGG2- | 
[V:2] B2c2 | 
[V:3] G4 | 
[V:4] _E,4 | 
[V:1] G2^F2 | 
[V:2] d4 | 
[V:3] A4 | 
[V:4] D,4 | 
[V:1] !fermata!G4 | 
[V:2] !fermata!d4 | 
[V:3] !fermata!G4 | 
[V:4] !fermata!G,,4 | 
[V:1] [M:3/2]z6 | 
[V:2] [M:3/2]d4d2 | 
[V:3] [M:3/2]G4F2 | 
[V:4] [M:3/2]G,,4D,2 | 
[V:1] G4F2 | 
[V:2] B2c2d2 | 
[V:3] G4A2 | 
[V:4] _E,4D,2 | 
[V:1] G4A2 | 
[V:2] d4d2 | 
[V:3] B4A2 | 
[V:4] B,,2G,,2D,2 | 
[V:1] B4A2 | 
[V:2] d2>e2f2 | 
[V:3] G4F2 | 
[V:4] G,,4D,2 | 
[V:1] G4F2 | 
[V:2] B2c2d2 | 
[V:3] G4A2 | 
[V:4] _E,4D,2 | 
[V:1] F4F2 | 
[V:2] d4d2 | 
[V:3] A4A2 | 
[V:4] D,4D,2 | 
[V:1] F4G2 | 
[V:2] d4B2 | 
[V:3] A4B2 | 
[V:4] D,4G,2 | 
[V:1] A2>F2G2 | 
[V:2] A4z2 | 
[V:3] c2>A2Bc | 
[V:4] F,4_E,2 | 
[V:1] FGABc2 | 
[V:2] f2>g2a2 | 
[V:3] d3c/B/A2 | 
[V:4] D,2>G,2F,2 | 
[V:1] B4A2 | 
[V:2] def4 | 
[V:3] B2c4 | 
[V:4] G,2F,4 | 
[V:1] !fermata!B4 | 
[V:2] !fermata!f4 | 
[V:3] !fermata!B4 | 
[V:4] !fermata!B,,4 | 
[V:1] [M:2/2]z2B2 | 
[V:2] [M:2/2]z2f2 | 
[V:3] [M:2/2]z2d2 | 
[V:4] [M:2/2]z2B,,2 | 
[V:1] B4 | 
[V:2] f4 | 
[V:3] d4 | 
[V:4] B,,4 | 
[V:1] !fermata!A4 | 
[V:2] !fermata!f4 | 
[V:3] !fermata!c4 | 
[V:4] !fermata!F,4 | 
[V:1] z2A2 | 
[V:2] z2F2 | 
[V:3] z2A2 | 
[V:4] z2F,2 | 
[V:1] G4 | 
[V:2] G4 | 
[V:3] B2c2 | 
[V:4] _E,4 | 
[V:1] !fermata!F4 | 
[V:2] !fermata!A4 | 
[V:3] !fermata!d4 | 
[V:4] !fermata!D,4 | 
[V:1] z2F2 | 
[V:2] z2d2 | 
[V:3] z2A2 | 
[V:4] z2D,2 | 
[V:1] F2F2 | 
[V:2] d2d2 | 
[V:3] A2A2 | 
[V:4] D,2D,2 | 
[V:1] G3F | 
[V:2] B2G2 | 
[V:3] B4 | 
[V:4] G,4 | 
[V:1] EDE2 | 
[V:2] G4 | 
[V:3] c4 | 
[V:4] C,4 | 
[V:1] D4 | 
[V:2] G4 | 
[V:3] B4 | 
[V:4] G,,4 | 
[V:1] z4 | 
[V:2] z4 | 
[V:3] F2GA | 
[V:4] D,2_E,F, | 
[V:1] F2GA | 
[V:2] z4 | 
[V:3] FB2A | 
[V:4] D,B,,_E,F, | 
[V:1] FB2A | 
[V:2] f2f2 | 
[V:3] B2c2 | 
[V:4] D,B,,F,2 | 
[V:1] B>AFG | 
[V:2] d>efe | 
[V:3] Bd2c | 
[V:4] G,>F,D,E, | 
[V:1] A>GEF | 
[V:2] c>ded | 
[V:3] Ac2B | 
[V:4] F,>E,C,D, | 
[V:1] G>FDE | 
[V:2] B>cdc | 
[V:3] GB2A | 
[V:4] _E,>D,B,,C, | 
[V:1] F>ECD | 
[V:2] A>BcB | 
[V:3] FA2G- | 
[V:4] D,>C,A,,B,, | 
[V:1] ED/C/D2 | 
[V:2] G2AB | 
[V:3] GF/E/FD- | 
[V:4] C,2zB,,- | 
[V:1] zGFD | 
[V:2] G2dB | 
[V:3] DEDG- | 
[V:4] B,,C,D,G,, | 
[V:1] E2AG | 
[V:2] cA2e | 
[V:3] GF/E/FE | 
[V:4] C,2D,E, | 
[V:1] EF2B | 
[V:2] cdB2 | 
[V:3] A2G/F/G | 
[V:4] A,,D,2_E, | 
[V:1] AFG2 | 
[V:2] fd_ec- | 
[V:3] FB2A/G/ | 
[V:4] F,B,,_E,2 | 
[V:1] cBGA- | 
[V:2] cgef | 
[V:3] AGc2 | 
[V:4] F,G,C,F,- | 
[V:1] AdcA | 
[V:2] d2zf | 
[V:3] B/A/BAd- | 
[V:4] F,G,A,D, | 
[V:1] B>AFA- | 
[V:2] gd/e/f2- | 
[V:3] dc/B/dc- | 
[V:4] G,2D,F,- | 
[V:1] AG2^F | 
[V:2] fd3 | 
[V:3] cBA2 | 
[V:4] F,G,D,2 | 
[V:1] G4 |]  
[V:2] d4 |]  
[V:3] G4 |]  
[V:4] G,,4 |]  


